X:1
T:Groningen, CM
T:Groningen, CM
T:Berthold Tours (1838-1897)
T:Public Domain Courtesy of the Cyber Hymnal™
C:Berthold Tours (1838-1897)
Z:Public Domain
Z:Courtesy of the Cyber Hymnal™
%%score ( 1 2 ) ( 3 4 )
L:1/8
Q:1/4=109
M:4/4
K:G
V:1 treble 
V:2 treble 
V:3 bass 
V:4 bass 
V:1
 [DB]2 | [CA]2 [B,G]2 [CE]2 [DF]2 | [DG]2 [Dc]2 [DB]2 [DB]2 | [^CA]2 D2 [DE]2 [CE]2 | D6 D2 | %5
 [DE]2 [DF]2 [DG]2 [EA]2 | [=FB]2 [B,d]2 [Cc]2 [^Fe]2 | [Gd]2 G2 [GA]2 [FA]2 | G6 |] %9
V:2
 x2 | x8 | x8 | x2 D2 x4 | D6 D2 | x8 | x8 | x2 G2 x4 | G6 |] %9
V:3
 [G,,G,]2 | [D,F,]2 [E,G,]2 [C,G,]2 [C,A,]2 | [B,,G,]2 [A,,F,]2 [G,,G,]2 [G,,G,]2 | %3
 [A,,G,]2 [B,,F,]2 [G,,B,]2 (A,G,) | [D,F,]6 [D,F,]2 | [D,G,]2 [=C,A,]2 [B,,G,]2 [C,G,]2 | %6
 [D,G,]2 [=F,G,]2 [E,G,]2 [A,,C]2 | [B,,D]2 [E,B,]2 [C,E]2 (DC) | [G,,B,]6 |] %9
V:4
 x2 | x8 | x8 | x6 A,,2 | x8 | x8 | x8 | x6 D,2 | x6 |] %9

